X:13
T:No.113 untitled reel
M:4/4
L:1/8
C:reel
K:G
G2BG cGBG|ADED FGAF|
G2BG cGBG|[1Addc AGFA:|
[2Addc AGBd||g2dg egdg|
g2bg fgaf|g2dg egdB|
[1cBAc BGBd:|[2cBAc BGAF||
